barley-off.svg

<svg fill="currentColor" viewBox="0 0 24 24"><path d="M11.96 1.21c-.66 1.55-1.32 3.1-1.31 4.61.01.6.12 1.18.29 1.8a3.4 3.4 0 0 0-.27-.45C9.83 6 8.17 5 6.5 4c0 .8 0 1.59.18 2.36L13 12.68V10.7c1.5-.9 2.92-1.82 3.67-2.87.83-1.16.83-2.5.83-3.83-1.67 1-3.33 2-4.17 3.17-.1.14-.18.28-.26.42.18-.63.29-1.27.28-1.9-.01-1.51-.7-3-1.39-4.48M3.28 5.5 2 6.77l4.64 4.64c.11.59.31 1.14.69 1.67.75 1.05 2.17 1.97 3.67 2.87v2.28l-.33-.56c-.84-1.17-2.5-2.17-4.17-3.17 0 1.33 0 2.67.83 3.83.75 1.05 2.17 1.97 3.67 2.87V23h2v-1.8c.74-.44 1.45-.89 2.07-1.36l3.66 3.66L20 22.22C14 16.23 9.1 11.32 3.28 5.5M17.5 9.25c-1.67 1-3.33 2-4.17 3.17l-.21.37L15 14.66c.67-.5 1.27-1.02 1.67-1.58.83-1.16.83-2.5.83-3.83m0 5.25c-.57.34-1.12.68-1.65 1.03l1.44 1.44c.21-.8.21-1.64.21-2.47"/></svg>

<svg  viewBox="0 0 24 24" fill="currentColor"><path  d="M11.96,1.21C11.3,2.76 10.64,4.31 10.65,5.82C10.66,6.42 10.77,7 10.94,7.62C10.86,7.46 10.77,7.31 10.67,7.17C9.83,6 8.17,5 6.5,4C6.5,4.8 6.5,5.59 6.68,6.36L13,12.68V10.7C14.5,9.8 15.92,8.88 16.67,7.83C17.5,6.67 17.5,5.33 17.5,4C15.83,5 14.17,6 13.33,7.17C13.23,7.31 13.15,7.45 13.07,7.59C13.25,6.96 13.36,6.32 13.35,5.69C13.34,4.18 12.65,2.69 11.96,1.21M3.28,5.5L2,6.77L6.64,11.41C6.75,12 6.95,12.55 7.33,13.08C8.08,14.13 9.5,15.05 11,15.95V18.23L10.67,17.67C9.83,16.5 8.17,15.5 6.5,14.5C6.5,15.83 6.5,17.17 7.33,18.33C8.08,19.38 9.5,20.3 11,21.2V23H13V21.2C13.74,20.76 14.45,20.31 15.07,19.84L18.73,23.5L20,22.22C14,16.23 9.1,11.32 3.28,5.5M17.5,9.25C15.83,10.25 14.17,11.25 13.33,12.42L13.12,12.79L15,14.66C15.67,14.16 16.27,13.64 16.67,13.08C17.5,11.92 17.5,10.58 17.5,9.25M17.5,14.5C16.93,14.84 16.38,15.18 15.85,15.53L17.29,16.97C17.5,16.17 17.5,15.33 17.5,14.5Z"/></svg>
